;START_OF_HEADER
;HEADER_VERSION:0.1
;FLAVOR:Griffin
;GENERATOR.NAME:Cura_SteamEngine
;GENERATOR.VERSION:4.12.1
;GENERATOR.BUILD_DATE:2021-11-18
;TARGET_MACHINE.NAME:Ultimaker 3 Extended
;EXTRUDER_TRAIN.0.INITIAL_TEMPERATURE:210
;EXTRUDER_TRAIN.0.MATERIAL.VOLUME_USED:581
;EXTRUDER_TRAIN.0.MATERIAL.GUID:506c9f0d-e3aa-4bd4-b2d2-23e2425b1aa9
;EXTRUDER_TRAIN.0.NOZZLE.DIAMETER:0.4
;EXTRUDER_TRAIN.0.NOZZLE.NAME:AA 0.4
;BUILD_PLATE.TYPE:glass
;BUILD_PLATE.INITIAL_TEMPERATURE:60
;PRINT.TIME:334
;PRINT.GROUPS:1
;PRINT.SIZE.MIN.X:9
;PRINT.SIZE.MIN.Y:6
;PRINT.SIZE.MIN.Z:0.2
;PRINT.SIZE.MAX.X:128.422
;PRINT.SIZE.MAX.Y:119.426
;PRINT.SIZE.MAX.Z:10
;END_OF_HEADER
;Generated with Cura_SteamEngine 4.12.1
T0
M82 ;absolute extrusion mode

G92 E0
M109 S210
G0 F15000 X9 Y6 Z2
G280
G1 F1500 E-6.5
;LAYER_COUNT:50
;LAYER:0
M107
M204 S625
M205 X30 Y30
G1 F600 Z2.2
G0 F4285.7 X107.667 Y99.483 Z2.2
M204 S500
M205 X20 Y20
;TYPE:SKIRT
G1 F600 Z0.2
G1 F1500 E0
G1 F1200 X108.02 Y99.11 E0.00676
G1 X108.631 Y98.535 E0.01781
G1 X109.284 Y98.001 E0.02892
G1 X109.568 Y97.792 E0.03356
G1 X109.987 Y97.507 E0.04023
G1 X110.651 Y97.105 E0.05045
G1 X110.962 Y96.935 E0.05512
G1 X111.442 Y96.696 E0.06218
G1 X112.222 Y96.365 E0.07334
G1 X113.022 Y96.09 E0.08448
G1 X113.808 Y95.88 E0.09519
G1 X114.645 Y95.717 E0.10642
G1 X115.481 Y95.616 E0.11751
G1 X116.324 Y95.573 E0.12862
G1 X116.676 Y95.573 E0.13325
G1 X117.519 Y95.616 E0.14437
G1 X118.355 Y95.717 E0.15546
G1 X119.192 Y95.88 E0.16669
G1 X119.978 Y96.09 E0.1774
G1 X120.778 Y96.365 E0.18854
G1 X121.254 Y96.56 E0.19531
G1 X121.574 Y96.705 E0.19994
G1 X122.023 Y96.928 E0.20654
G1 X122.714 Y97.319 E0.21699
G1 X123.013 Y97.507 E0.22164
G1 X123.428 Y97.79 E0.22826
G1 X124.099 Y98.305 E0.23939
G1 X124.727 Y98.862 E0.25045
G1 X124.979 Y99.109 E0.25509
G1 X125.332 Y99.482 E0.26186
G1 X125.867 Y100.115 E0.27277
G1 X126.368 Y100.8 E0.28394
G1 X126.803 Y101.489 E0.29467
G1 X126.976 Y101.795 E0.2993
G1 X127.214 Y102.257 E0.30614
G1 X127.551 Y103.012 E0.31703
G1 X127.839 Y103.798 E0.32805
G1 X128.074 Y104.614 E0.33923
G1 X128.249 Y105.439 E0.35034
G1 X128.365 Y106.273 E0.36143
G1 X128.422 Y107.116 E0.37255
G1 X128.42 Y107.939 E0.38339
G1 X128.402 Y108.293 E0.38806
G1 X128.357 Y108.808 E0.39486
G1 X128.238 Y109.619 E0.40566
G1 X128.057 Y110.453 E0.41689
G1 X127.817 Y111.268 E0.42808
G1 X127.529 Y112.043 E0.43897
G1 X127.18 Y112.812 E0.45009
G1 X126.784 Y113.543 E0.46103
G1 X126.602 Y113.843 E0.46565
G1 X126.323 Y114.268 E0.47235
G1 X125.82 Y114.945 E0.48345
G1 X125.273 Y115.581 E0.4945
G1 X124.684 Y116.177 E0.50553
G1 X124.051 Y116.734 E0.51664
G1 X123.401 Y117.229 E0.52739
G1 X123.111 Y117.429 E0.53203
G1 X122.67 Y117.709 E0.53891
G1 X122.365 Y117.887 E0.54356
G1 X121.924 Y118.124 E0.55015
G1 X121.203 Y118.462 E0.56064
G1 X120.879 Y118.596 E0.56525
G1 X120.38 Y118.78 E0.57226
G1 X119.583 Y119.023 E0.58323
G1 X118.767 Y119.211 E0.59425
G1 X117.938 Y119.341 E0.6053
G1 X117.109 Y119.412 E0.61626
G1 X116.264 Y119.426 E0.62739
G1 X115.912 Y119.414 E0.63203
G1 X115.402 Y119.378 E0.63876
G1 X114.601 Y119.276 E0.64939
G1 X114.253 Y119.215 E0.65404
G1 X113.741 Y119.105 E0.66094
G1 X112.957 Y118.89 E0.67164
G1 X112.62 Y118.78 E0.67631
G1 X112.121 Y118.596 E0.68331
G1 X111.394 Y118.28 E0.69375
G1 X111.076 Y118.124 E0.69841
G1 X110.635 Y117.887 E0.70501
G1 X110.33 Y117.709 E0.70966
G1 X109.889 Y117.429 E0.71654
G1 X109.225 Y116.953 E0.72729
G1 X108.577 Y116.416 E0.73837
G1 X107.97 Y115.837 E0.74942
G1 X107.405 Y115.218 E0.76046
G1 X106.882 Y114.556 E0.77156
G1 X106.677 Y114.268 E0.77622
G1 X106.398 Y113.843 E0.78291
G1 X105.982 Y113.126 E0.79383
G1 X105.61 Y112.367 E0.80496
G1 X105.3 Y111.602 E0.81583
G1 X105.183 Y111.268 E0.82049
G1 X105.03 Y110.774 E0.8273
G1 X104.834 Y109.986 E0.83799
G1 X104.687 Y109.157 E0.84907
G1 X104.643 Y108.808 E0.85371
G1 X104.598 Y108.294 E0.8605
G1 X104.572 Y107.47 E0.87136
G1 X104.604 Y106.626 E0.88248
G1 X104.692 Y105.812 E0.89326
G1 X104.747 Y105.461 E0.89794
G1 X104.851 Y104.932 E0.90503
G1 X105.056 Y104.137 E0.91584
G1 X105.317 Y103.353 E0.92673
G1 X105.635 Y102.577 E0.93777
G1 X105.786 Y102.256 E0.94244
G1 X106.024 Y101.795 E0.94927
G1 X106.434 Y101.101 E0.95988
G1 X106.628 Y100.805 E0.96454
G1 X106.918 Y100.396 E0.97115
G1 X107.434 Y99.748 E0.98205
G1 X107.667 Y99.483 E0.9867
M204 S625
M205 X30 Y30
G0 F4285.7 X107.749 Y100.025
M204 S500
M205 X20 Y20
G1 F1200 X108.314 Y99.41 E0.9977
G1 X108.903 Y98.855 E1.00835
G1 X109.533 Y98.34 E1.01907
G1 X110.211 Y97.863 E1.02998
G1 X110.853 Y97.474 E1.03987
G1 X111.164 Y97.304 E1.04453
G1 X111.615 Y97.079 E1.05117
G1 X112.367 Y96.759 E1.06193
G1 X113.138 Y96.494 E1.07267
G1 X113.897 Y96.291 E1.08301
G1 X114.704 Y96.133 E1.09384
G1 X115.51 Y96.034 E1.10453
G1 X116.324 Y95.993 E1.11526
G1 X116.676 Y95.993 E1.1199
G1 X117.49 Y96.034 E1.13063
G1 X118.296 Y96.133 E1.14132
G1 X119.103 Y96.291 E1.15215
G1 X119.862 Y96.494 E1.1625
G1 X120.633 Y96.759 E1.17323
G1 X121.401 Y97.087 E1.18423
G1 X122.133 Y97.466 E1.19508
G1 X122.789 Y97.863 E1.20518
G1 X123.462 Y98.336 E1.21601
G1 X124.096 Y98.854 E1.22679
G1 X124.685 Y99.409 E1.23745
G1 X125.25 Y100.024 E1.24844
G1 X125.747 Y100.65 E1.25897
G1 X126.212 Y101.327 E1.26978
G1 X126.61 Y102.002 E1.2801
G1 X126.984 Y102.755 E1.29117
G1 X127.288 Y103.494 E1.30169
G1 X127.543 Y104.261 E1.31233
G1 X127.745 Y105.051 E1.32307
G1 X127.89 Y105.855 E1.33383
G1 X127.978 Y106.66 E1.34449
G1 X128.008 Y107.476 E1.35524
G1 X127.983 Y108.272 E1.36573
G1 X127.896 Y109.104 E1.37674
G1 X127.758 Y109.886 E1.3872
G1 X127.56 Y110.682 E1.398
G1 X127.304 Y111.463 E1.40882
G1 X127.004 Y112.202 E1.41933
G1 X126.644 Y112.934 E1.43007
G1 X126.243 Y113.626 E1.4406
G1 X125.776 Y114.312 E1.45152
G1 X125.271 Y114.95 E1.46224
G1 X124.726 Y115.548 E1.47289
G1 X124.139 Y116.106 E1.48356
G1 X123.513 Y116.624 E1.49426
G1 X122.873 Y117.083 E1.50463
G1 X122.153 Y117.525 E1.51575
G1 X121.421 Y117.903 E1.5266
G1 X120.718 Y118.208 E1.53669
G1 X119.913 Y118.491 E1.54792
G1 X119.139 Y118.701 E1.55848
G1 X118.345 Y118.859 E1.56914
G1 X117.546 Y118.96 E1.57975
G1 X116.738 Y119.006 E1.59041
G1 X115.926 Y118.994 E1.6011
G1 X115.096 Y118.922 E1.61207
G1 X114.325 Y118.801 E1.62234
G1 X113.502 Y118.611 E1.63347
G1 X112.75 Y118.381 E1.64382
G1 X111.958 Y118.074 E1.65501
G1 X111.261 Y117.747 E1.66514
G1 X110.542 Y117.347 E1.67598
G1 X109.837 Y116.883 E1.68709
G1 X109.211 Y116.405 E1.69746
G1 X108.6 Y115.867 E1.70818
G1 X108.031 Y115.292 E1.71883
G1 X107.504 Y114.677 E1.7295
G1 X107.019 Y114.024 E1.74021
G1 X106.575 Y113.326 E1.7511
G1 X106.194 Y112.62 E1.76166
G1 X105.857 Y111.878 E1.77239
G1 X105.579 Y111.129 E1.78291
G1 X105.345 Y110.326 E1.79393
G1 X105.177 Y109.556 E1.8043
G1 X105.06 Y108.755 E1.81496
G1 X104.999 Y107.92 E1.82599
G1 X104.998 Y107.125 E1.83646
G1 X105.053 Y106.312 E1.84719
G1 X105.161 Y105.526 E1.85763
G1 X105.259 Y105.029 E1.8643
G1 X105.457 Y104.262 E1.87473
G1 X105.708 Y103.504 E1.88525
G1 X106.015 Y102.756 E1.89589
G1 X106.39 Y102.002 E1.90698
G1 X106.785 Y101.331 E1.91723
G1 X107.252 Y100.651 E1.9281
G1 X107.749 Y100.025 E1.93862
M204 S625
M205 X30 Y30
G0 F4285.7 X108.297 Y100.038
M204 S500
M205 X20 Y20
G1 F1200 X108.86 Y99.463 E1.94922
G1 X109.444 Y98.946 E1.95949
G1 X110.066 Y98.469 E1.96981
G1 X110.733 Y98.03 E1.98032
G1 X111.365 Y97.672 E1.98989
G1 X112.107 Y97.318 E2.00071
G1 X112.844 Y97.032 E2.01112
G1 X113.591 Y96.801 E2.02142
G1 X114.332 Y96.626 E2.03144
G1 X115.114 Y96.499 E2.04187
G1 X115.891 Y96.428 E2.05215
G1 X116.676 Y96.413 E2.06249
G1 X117.46 Y96.453 E2.07282
G1 X118.237 Y96.549 E2.08313
G1 X119.014 Y96.701 E2.09356
G1 X119.746 Y96.898 E2.10354
G1 X120.489 Y97.154 E2.11389
G1 X121.228 Y97.47 E2.12447
G1 X121.933 Y97.835 E2.13492
G1 X122.566 Y98.218 E2.14466
G1 X123.214 Y98.675 E2.1551
G1 X123.824 Y99.174 E2.16548
G1 X124.391 Y99.709 E2.17575
G1 X124.935 Y100.302 E2.18634
G1 X125.414 Y100.905 E2.19648
G1 X125.861 Y101.558 E2.2069
G1 X126.244 Y102.209 E2.21685
G1 X126.604 Y102.934 E2.22751
G1 X126.897 Y103.646 E2.23764
G1 X127.142 Y104.385 E2.2479
G1 X127.336 Y105.147 E2.25825
G1 X127.476 Y105.922 E2.26862
G1 X127.559 Y106.697 E2.27888
G1 X127.588 Y107.484 E2.28925
G1 X127.563 Y108.25 E2.29934
G1 X127.479 Y109.052 E2.30996
G1 X127.346 Y109.806 E2.32004
G1 X127.154 Y110.572 E2.33044
G1 X126.908 Y111.324 E2.34086
G1 X126.618 Y112.036 E2.35098
G1 X126.271 Y112.741 E2.36133
G1 X125.884 Y113.408 E2.37148
G1 X125.433 Y114.069 E2.38202
G1 X124.947 Y114.683 E2.39233
G1 X124.421 Y115.259 E2.4026
G1 X123.856 Y115.796 E2.41287
G1 X123.252 Y116.295 E2.42318
G1 X122.634 Y116.737 E2.43319
G1 X121.942 Y117.162 E2.44388
G1 X121.236 Y117.526 E2.45434
G1 X120.557 Y117.82 E2.46408
G1 X119.783 Y118.091 E2.47488
G1 X119.036 Y118.294 E2.48507
G1 X118.271 Y118.446 E2.49534
G1 X117.502 Y118.543 E2.50555
G1 X116.722 Y118.586 E2.51583
G1 X115.941 Y118.574 E2.52612
G1 X115.142 Y118.505 E2.53668
G1 X114.398 Y118.388 E2.5466
G1 X113.606 Y118.204 E2.5573
G1 X112.88 Y117.981 E2.5673
G1 X112.119 Y117.686 E2.57805
G1 X111.446 Y117.37 E2.58784
G1 X110.753 Y116.984 E2.59829
G1 X110.076 Y116.537 E2.60897
G1 X109.472 Y116.076 E2.61897
G1 X108.883 Y115.557 E2.62931
G1 X108.336 Y115.003 E2.63956
G1 X107.828 Y114.41 E2.64984
G1 X107.362 Y113.781 E2.66015
G1 X106.934 Y113.108 E2.67065
G1 X106.567 Y112.427 E2.68084
G1 X106.243 Y111.712 E2.69117
G1 X105.975 Y110.99 E2.70131
G1 X105.75 Y110.217 E2.71192
G1 X105.589 Y109.474 E2.72193
G1 X105.477 Y108.703 E2.73218
G1 X105.419 Y107.898 E2.74281
G1 X105.418 Y107.132 E2.7529
G1 X105.472 Y106.349 E2.76323
G1 X105.576 Y105.591 E2.77331
G1 X105.749 Y104.786 E2.78415
G1 X105.963 Y104.048 E2.79427
G1 X106.227 Y103.328 E2.80436
G1 X106.546 Y102.614 E2.81466
G1 X106.929 Y101.903 E2.8253
G1 X107.33 Y101.266 E2.83521
G1 X107.799 Y100.626 E2.84565
G1 X108.297 Y100.038 E2.8558
M204 S625
M205 X30 Y30
G0 F4285.7 X108.613 Y100.315
M204 S500
M205 X20 Y20
G1 F1200 X109.154 Y99.763 E2.86598
G1 X109.717 Y99.266 E2.87587
G1 X110.315 Y98.807 E2.88579
G1 X110.957 Y98.386 E2.8959
G1 X111.566 Y98.041 E2.90512
G1 X112.279 Y97.701 E2.91552
G1 X112.988 Y97.426 E2.92553
G1 X113.708 Y97.204 E2.93545
G1 X114.421 Y97.037 E2.9451
G1 X115.173 Y96.915 E2.95513
G1 X115.921 Y96.847 E2.96502
G1 X116.676 Y96.833 E2.97496
G1 X117.43 Y96.872 E2.9849
G1 X118.178 Y96.965 E2.99483
G1 X118.925 Y97.112 E3.00485
G1 X119.629 Y97.301 E3.01445
G1 X120.345 Y97.548 E3.02442
G1 X121.054 Y97.852 E3.03458
G1 X121.732 Y98.204 E3.04464
G1 X122.342 Y98.574 E3.05403
G1 X122.965 Y99.013 E3.06407
G1 X123.551 Y99.494 E3.07405
G1 X124.097 Y100.009 E3.08393
G1 X124.619 Y100.579 E3.09411
G1 X125.08 Y101.16 E3.10388
G1 X125.51 Y101.788 E3.1139
G1 X125.879 Y102.416 E3.12349
G1 X126.224 Y103.112 E3.13372
G1 X126.505 Y103.798 E3.14348
G1 X126.741 Y104.51 E3.15336
G1 X126.927 Y105.243 E3.16331
G1 X127.061 Y105.988 E3.17328
G1 X127.141 Y106.734 E3.18316
G1 X127.168 Y107.491 E3.19313
G1 X127.144 Y108.229 E3.20286
G1 X127.062 Y108.999 E3.21305
G1 X126.934 Y109.725 E3.22276
G1 X126.749 Y110.462 E3.23277
G1 X126.511 Y111.186 E3.2428
G1 X126.232 Y111.87 E3.25253
G1 X125.898 Y112.549 E3.26249
G1 X125.525 Y113.19 E3.27226
G1 X125.091 Y113.825 E3.28238
G1 X124.622 Y114.416 E3.29232
G1 X124.116 Y114.97 E3.3022
G1 X123.572 Y115.487 E3.31208
G1 X122.991 Y115.966 E3.32199
G1 X122.396 Y116.392 E3.33163
G1 X121.73 Y116.799 E3.34191
G1 X121.051 Y117.148 E3.35196
G1 X120.397 Y117.432 E3.36135
G1 X119.652 Y117.692 E3.37174
G1 X118.934 Y117.887 E3.38154
G1 X118.198 Y118.032 E3.39141
G1 X117.457 Y118.125 E3.40125
G1 X116.707 Y118.166 E3.41114
G1 X115.955 Y118.155 E3.42104
G1 X115.187 Y118.087 E3.43119
G1 X114.47 Y117.974 E3.44075
G1 X113.709 Y117.797 E3.45104
G1 X113.011 Y117.582 E3.46065
G1 X112.279 Y117.298 E3.47099
G1 X111.631 Y116.992 E3.48043
G1 X110.965 Y116.621 E3.49047
G1 X110.314 Y116.192 E3.50073
G1 X109.733 Y115.747 E3.51037
G1 X109.167 Y115.248 E3.5203
G1 X108.641 Y114.714 E3.53017
G1 X108.153 Y114.143 E3.54006
G1 X107.704 Y113.537 E3.55
G1 X107.293 Y112.89 E3.56009
G1 X106.94 Y112.235 E3.56989
G1 X106.629 Y111.546 E3.57984
G1 X106.372 Y110.852 E3.58958
G1 X106.156 Y110.108 E3.59979
G1 X106.001 Y109.393 E3.60942
G1 X105.894 Y108.65 E3.6193
G1 X105.838 Y107.877 E3.62951
G1 X105.838 Y107.139 E3.63923
G1 X105.89 Y106.386 E3.64916
G1 X105.991 Y105.656 E3.65887
G1 X106.157 Y104.883 E3.66928
G1 X106.364 Y104.173 E3.67902
G1 X106.619 Y103.48 E3.68874
G1 X106.926 Y102.793 E3.69865
G1 X107.294 Y102.11 E3.70886
G1 X107.682 Y101.496 E3.71843
G1 X108.133 Y100.881 E3.72847
G1 X108.613 Y100.315 E3.73824
M204 S625
M205 X30 Y30
G0 F4285.7 X108.928 Y100.592
M204 S500
M205 X20 Y20
G1 F1200 X109.448 Y100.063 E3.74801
G1 X109.989 Y99.585 E3.75751
G1 X110.564 Y99.146 E3.76704
G1 X111.18 Y98.742 E3.77674
G1 X111.768 Y98.409 E3.78564
G1 X112.452 Y98.084 E3.79561
G1 X113.133 Y97.82 E3.80523
G1 X113.824 Y97.608 E3.81474
G1 X114.51 Y97.447 E3.82402
G1 X115.233 Y97.33 E3.83367
G1 X115.951 Y97.266 E3.84316
G1 X116.676 Y97.253 E3.85271
G1 X117.4 Y97.291 E3.86225
G1 X118.118 Y97.38 E3.87178
G1 X118.836 Y97.522 E3.88142
G1 X119.513 Y97.705 E3.89065
G1 X120.2 Y97.942 E3.90022
G1 X120.881 Y98.235 E3.90998
G1 X121.532 Y98.573 E3.91964
G1 X122.119 Y98.93 E3.92869
G1 X122.716 Y99.352 E3.93831
G1 X123.279 Y99.813 E3.94789
G1 X123.803 Y100.309 E3.95739
G1 X124.304 Y100.856 E3.96716
G1 X124.746 Y101.415 E3.97654
G1 X125.159 Y102.019 E3.98618
G1 X125.513 Y102.622 E3.99539
G1 X125.844 Y103.291 E4.00521
G1 X126.114 Y103.95 E4.01459
G1 X126.34 Y104.635 E4.02409
G1 X126.518 Y105.338 E4.03364
G1 X126.646 Y106.055 E4.04323
G1 X126.723 Y106.771 E4.05271
G1 X126.748 Y107.498 E4.06229
G1 X126.724 Y108.208 E4.07164
G1 X126.646 Y108.947 E4.08143
G1 X126.522 Y109.645 E4.09076
G1 X126.344 Y110.352 E4.10036
G1 X126.115 Y111.047 E4.11
G1 X125.846 Y111.705 E4.11936
G1 X125.525 Y112.356 E4.12892
G1 X125.166 Y112.972 E4.1383
G1 X124.749 Y113.581 E4.14802
G1 X124.298 Y114.149 E4.15757
G1 X123.812 Y114.68 E4.16705
G1 X123.289 Y115.177 E4.17655
G1 X122.73 Y115.637 E4.18608
G1 X122.158 Y116.046 E4.19534
G1 X121.518 Y116.436 E4.20521
G1 X120.866 Y116.771 E4.21486
G1 X120.236 Y117.043 E4.2239
G1 X119.522 Y117.293 E4.23386
G1 X118.831 Y117.479 E4.24328
G1 X118.124 Y117.619 E4.25277
G1 X117.413 Y117.707 E4.26221
G1 X116.692 Y117.747 E4.27171
G1 X115.969 Y117.735 E4.28124
G1 X115.232 Y117.67 E4.29098
G1 X114.543 Y117.56 E4.30016
G1 X113.813 Y117.39 E4.31003
G1 X113.141 Y117.183 E4.31929
G1 X112.44 Y116.909 E4.3292
G1 X111.816 Y116.615 E4.33829
G1 X111.177 Y116.258 E4.34792
G1 X110.552 Y115.846 E4.35778
G1 X109.994 Y115.418 E4.36704
G1 X109.45 Y114.938 E4.37659
G1 X108.945 Y114.424 E4.38608
G1 X108.477 Y113.876 E4.39557
G1 X108.046 Y113.293 E4.40512
G1 X107.652 Y112.672 E4.4148
G1 X107.313 Y112.042 E4.42422
G1 X107.015 Y111.381 E4.43377
G1 X106.768 Y110.713 E4.44315
G1 X106.562 Y109.999 E4.45293
G1 X106.413 Y109.311 E4.4622
G1 X106.31 Y108.598 E4.47169
G1 X106.258 Y107.855 E4.48149
G1 X106.258 Y107.147 E4.49082
G1 X106.308 Y106.423 E4.50037
G1 X106.406 Y105.721 E4.5097
G1 X106.566 Y104.98 E4.51969
G1 X106.765 Y104.298 E4.52904
G1 X107.01 Y103.631 E4.5384
G1 X107.306 Y102.971 E4.54792
G1 X107.66 Y102.316 E4.55773
G1 X108.033 Y101.726 E4.56692
G1 X108.467 Y101.136 E4.57656
G1 X108.928 Y100.592 E4.58595
M204 S625
M205 X30 Y30
G0 F4285.7 X109.244 Y100.87
M204 S500
M205 X20 Y20
G1 F1200 X109.742 Y100.363 E4.59531
G1 X110.261 Y99.905 E4.60442
G1 X110.813 Y99.484 E4.61356
G1 X111.404 Y99.097 E4.62287
G1 X111.969 Y98.778 E4.63141
G1 X112.624 Y98.467 E4.64096
G1 X113.277 Y98.215 E4.65017
G1 X113.94 Y98.011 E4.65931
